en/guide/_images/other/project-delete-b.svg

<svg width="16" height="21" viewBox="0 0 16 21" fill="none" xmlns="http://www.w3.org/2000/svg"><path fill-rule="evenodd" clip-rule="evenodd" d="M8.663 0.5H7.337C6.268 0.5 5.847 0.59 5.416 0.77C4.984 0.951 4.624 1.223 4.332 1.59C4.04 1.955 3.839 2.336 3.548 3.364L3.368 4H1C0.734784 4 0.48043 4.10536 0.292893 4.29289C0.105357 4.48043 0 4.73478 0 5C0 5.26522 0.105357 5.51957 0.292893 5.70711C0.48043 5.89464 0.734784 6 1 6H1.563L2.266 17.25C2.348 18.57 2.389 19.23 2.673 19.731C2.9226 20.1719 3.30029 20.5266 3.756 20.748C4.273 21 4.935 21 6.258 21H9.742C11.065 21 11.727 21 12.244 20.748C12.6997 20.5266 13.0774 20.1719 13.327 19.731C13.611 19.231 13.652 18.571 13.734 17.249L14.437 6H15C15.2652 6 15.5196 5.89464 15.7071 5.70711C15.8946 5.51957 16 5.26522 16 5C16 4.73478 15.8946 4.48043 15.7071 4.29289C15.5196 4.10536 15.2652 4 15 4H12.633L12.453 3.364C12.161 2.336 11.96 1.955 11.668 1.589C11.3826 1.22788 11.0094 0.945909 10.584 0.77C10.153 0.59 9.732 0.5 8.664 0.5H8.663ZM10.553 4L10.528 3.91C10.325 3.193 10.238 3.005 10.104 2.836C10.0281 2.73759 9.92732 2.66128 9.812 2.615C9.612 2.531 9.408 2.5 8.663 2.5H7.337C6.592 2.5 6.387 2.531 6.188 2.615C6.07268 2.66128 5.97186 2.73759 5.896 2.836C5.761 3.005 5.675 3.193 5.472 3.91L5.446 4H10.554H10.553ZM5.61 7.506C5.51149 7.50936 5.41461 7.5321 5.32489 7.57292C5.23518 7.61375 5.15439 7.67186 5.08715 7.74393C5.01991 7.816 4.96753 7.90062 4.93302 7.99294C4.8985 8.08527 4.88253 8.18349 4.886 8.282L5.183 16.777C5.1918 16.9745 5.27824 17.1606 5.42352 17.2947C5.5688 17.4288 5.76116 17.5001 5.95876 17.4931C6.15635 17.4862 6.3432 17.4014 6.47864 17.2574C6.61408 17.1133 6.68717 16.9217 6.682 16.724L6.385 8.23C6.37822 8.03123 6.29276 7.84328 6.14743 7.70751C6.00209 7.57174 5.80877 7.49925 5.61 7.506ZM9.618 8.23C9.6271 8.03278 9.7136 7.84711 9.85873 7.71327C10.0039 7.57942 10.1959 7.50819 10.3932 7.51503C10.5905 7.52188 10.7772 7.60624 10.9127 7.74983C11.0482 7.89341 11.1216 8.08463 11.117 8.282L10.82 16.777C10.8112 16.9745 10.7248 17.1606 10.5795 17.2947C10.4342 17.4288 10.2418 17.5001 10.0442 17.4931C9.84665 17.4862 9.6598 17.4014 9.52436 17.2574C9.38892 17.1133 9.31583 16.9217 9.321 16.724L9.618 8.23Z" fill="#7F8285"></path></svg>

<svg xmlns="http://www.w3.org/2000/svg" width="16" height="21" fill="none"><path fill="#7F8285" fill-rule="evenodd" d="M8.663.5H7.337c-1.069 0-1.49.09-1.921.27a2.689 2.689 0 0 0-1.084.82c-.292.365-.493.746-.784 1.774L3.368 4H1a1 1 0 0 0 0 2h.563l.703 11.25c.082 1.32.123 1.98.407 2.481a2.5 2.5 0 0 0 1.083 1.017C4.273 21 4.935 21 6.258 21h3.484c1.323 0 1.985 0 2.502-.252a2.5 2.5 0 0 0 1.083-1.017c.284-.5.325-1.16.407-2.482L14.437 6H15a1 1 0 1 0 0-2h-2.367l-.18-.636c-.292-1.028-.493-1.409-.785-1.775A2.694 2.694 0 0 0 10.584.77C10.153.59 9.732.5 8.664.5h-.001Zm1.89 3.5-.025-.09c-.203-.717-.29-.905-.424-1.074a.696.696 0 0 0-.292-.221c-.2-.084-.404-.115-1.149-.115H7.337c-.745 0-.95.031-1.149.115a.696.696 0 0 0-.292.221c-.135.169-.221.357-.424 1.074L5.446 4h5.108-.001ZM5.61 7.506a.75.75 0 0 0-.724.776l.297 8.495a.75.75 0 0 0 1.499-.053L6.385 8.23a.75.75 0 0 0-.775-.724Zm4.008.724a.75.75 0 0 1 1.499.052l-.297 8.495a.75.75 0 0 1-1.499-.053l.297-8.494Z" clip-rule="evenodd"/></svg>
